polaris-icons/icons/new-icons/DomainNewMajor.svg

<svg width="20" height="20" viewBox="0 0 20 20" fill="none" xmlns="http://www.w3.org/2000/svg">
<path fill-rule="evenodd" clip-rule="evenodd" d="M11.9727 8.94816C11.9908 9.28851 12 9.6398 12 10C12 10.4142 12.3358 10.75 12.75 10.75C13.1642 10.75 13.5 10.4142 13.5 10C13.5 9.60265 13.4895 9.21076 13.4683 8.82722C14.344 8.73065 15.1323 8.59256 15.7872 8.41049C15.9259 8.91674 16 9.44972 16 10C16 10.4142 16.3358 10.75 16.75 10.75C17.1642 10.75 17.5 10.4142 17.5 10C17.5 5.85786 14.1421 2.5 10 2.5C5.85786 2.5 2.5 5.85786 2.5 10C2.5 14.1421 5.85786 17.5 10 17.5C10.4142 17.5 10.75 17.1642 10.75 16.75C10.75 16.3358 10.4142 16 10 16C9.60385 16 9.09339 15.6681 8.65319 14.5071C8.48498 14.0634 8.34657 13.542 8.24113 12.9595C8.80691 12.9866 9.396 13.0002 10 13.0002C10.4143 13.0002 10.75 12.6644 10.75 12.2502C10.75 11.836 10.4143 11.5002 10 11.5002C9.32197 11.5002 8.66874 11.4824 8.05267 11.4476C8.0179 10.986 8 10.5016 8 10C8 9.63979 8.00923 9.28851 8.02731 8.94815C8.66188 8.98278 9.32392 8.99974 10 8.99974C10.6761 8.99974 11.3381 8.98278 11.9727 8.94816ZM10 4C9.60385 4 9.09339 4.33189 8.65319 5.49292C8.44614 6.03901 8.28423 6.70289 8.17341 7.45367C8.75032 7.48397 9.36214 7.49974 10 7.49974C10.6379 7.49974 11.2497 7.48398 11.8266 7.45367C11.7158 6.7029 11.5539 6.03901 11.3468 5.49292C10.9066 4.33189 10.3962 4 10 4ZM6.67517 7.33387C6.79926 6.45358 6.99015 5.6481 7.25062 4.96114C7.29814 4.83579 7.34929 4.71142 7.4042 4.58904C6.30875 5.11552 5.39783 5.96486 4.7948 7.01369C5.31584 7.1456 5.9513 7.25352 6.67517 7.33387ZM4.21281 8.41047C4.86772 8.59254 5.65598 8.73064 6.53166 8.82721C6.51049 9.21076 6.5 9.60265 6.5 10C6.5 10.448 6.51333 10.889 6.54026 11.3189C6.43354 11.3063 6.32867 11.2931 6.22575 11.2793C5.2788 11.1521 4.54266 10.9772 4.04999 10.7781C4.01701 10.5234 4 10.2637 4 10C4 9.44971 4.07408 8.91673 4.21281 8.41047ZM15.2052 7.0137C14.6842 7.14561 14.0487 7.25353 13.3248 7.33387C13.2007 6.45359 13.0098 5.6481 12.7494 4.96114C12.7019 4.83579 12.6507 4.71142 12.5958 4.58904C13.6913 5.11552 14.6022 5.96486 15.2052 7.0137ZM7.4042 15.411C6.14286 14.8048 5.12617 13.7705 4.54244 12.4965C4.99714 12.6061 5.49736 12.6949 6.02598 12.7659C6.24431 12.7953 6.46976 12.8219 6.70157 12.8457C6.8257 13.656 7.00797 14.3989 7.25062 15.0389C7.29814 15.1642 7.34929 15.2886 7.4042 15.411Z" fill="#4A4A4A"/>
<path d="M14.75 11.75C15.1642 11.75 15.5 12.0858 15.5 12.5V14H17C17.4142 14 17.75 14.3358 17.75 14.75C17.75 15.1642 17.4142 15.5 17 15.5H15.5V16.9991C15.5 17.4134 15.1642 17.75 14.75 17.75C14.3358 17.75 14 17.4142 14 17V15.5H12.5009C12.0866 15.5 11.75 15.1642 11.75 14.75C11.75 14.3358 12.0858 14 12.5 14H14V12.5C14 12.0858 14.3358 11.75 14.75 11.75Z" fill="#4A4A4A"/>
</svg>

<svg viewBox="0 0 20 20" xmlns="http://www.w3.org/2000/svg"><path fill-rule="evenodd" d="M11.973 8.948c.018.34.027.692.027 1.052a.75.75 0 0 0 1.5 0c0-.397-.01-.79-.032-1.173.876-.096 1.664-.234 2.32-.417.138.507.212 1.04.212 1.59a.75.75 0 0 0 1.5 0 7.5 7.5 0 1 0-7.5 7.5.75.75 0 0 0 0-1.5c-.396 0-.907-.332-1.347-1.493a8.863 8.863 0 0 1-.412-1.547c.566.027 1.155.04 1.759.04a.75.75 0 1 0 0-1.5c-.678 0-1.331-.018-1.947-.052a19.852 19.852 0 0 1-.025-2.5c.634.035 1.296.052 1.972.052.676 0 1.338-.017 1.973-.052Zm-1.973-4.948c-.396 0-.907.332-1.347 1.493-.207.546-.369 1.21-.48 1.96.577.031 1.19.047 1.827.047.638 0 1.25-.016 1.827-.046-.111-.751-.273-1.415-.48-1.961-.44-1.161-.95-1.493-1.347-1.493Zm-3.325 3.334c.124-.88.315-1.686.576-2.373.047-.125.098-.25.153-.372a6.026 6.026 0 0 0-2.61 2.425c.522.132 1.157.24 1.881.32Zm-2.462 1.076c.655.183 1.443.32 2.319.417a21.308 21.308 0 0 0 .008 2.492 20.112 20.112 0 0 1-.314-.04c-.947-.127-1.683-.302-2.176-.5a6.057 6.057 0 0 1 .163-2.369Zm10.992-1.396c-.52.132-1.156.24-1.88.32-.124-.88-.315-1.686-.576-2.373a6.776 6.776 0 0 0-.153-.372 6.026 6.026 0 0 1 2.61 2.425Zm-7.8 8.397a6.024 6.024 0 0 1-2.863-2.915c.455.11.955.199 1.484.27.218.03.444.056.676.08.124.81.306 1.553.549 2.193.047.125.098.25.153.372Z" fill="#5C5F62"/><path d="M14.75 11.75a.75.75 0 0 1 .75.75v1.5h1.5a.75.75 0 0 1 0 1.5h-1.5v1.5a.75.75 0 0 1-1.5 0v-1.5h-1.5a.75.75 0 0 1 0-1.5h1.5v-1.5a.75.75 0 0 1 .75-.75Z" fill="#5C5F62"/></svg>
